!!!COM: Music21
!!!OTL: hornpipe_Greencastle--The
!!!OMV: hornpipe_Greencastle--The
**kern
*clefG2
*k[f#]
*G:
*M4/4
=1
8.ddL
16ccJk
=||
8.bL
16gJk
8.dL
16gJk
8.bL
16gJk
8.dL
16gJk
=
12ggL
12aa
12ggJ
8.ff#L
16ggJk
4ee
8.ddL
16ccJk
=
8.bL
16gJk
8.dL
16gJk
8.bL
16gJk
8.dL
16gJk
=
8.ddL
16ccJk
8.bL
16ccJk
4a
8.ddL
16ccJk
!!linebreak:original
=
8.bL
16gJk
8.dL
16gJk
8.bL
16gJk
8.dL
16gJk
=
12ggL
12aa
12ggJ
8.ff#L
16ggJk
4ee
8.ddL
16ccJk
=
8.bL
16ggJk
8.ff#L
16ggJk
8.eeL
16ccJk
8.aL
16f#Jk
=
4g
4b
4g
8.ddL
16ccJk
=||
8.bL
16gJk
8.dL
16gJk
8.bL
16gJk
8.dL
16gJk
!!linebreak:original
=
12ggL
12aa
12ggJ
8.ff#L
16ggJk
4ee
8.ddL
16ccJk
=
8.bL
16gJk
8.dL
16gJk
8.bL
16gJk
8.dL
16gJk
=
8.ddL
16ccJk
8.bL
16ccJk
4a
8.ddL
16ccJk
=
8.bL
16gJk
8.dL
16gJk
8.bL
16gJk
8.dL
16gJk
!!linebreak:original
=
12ggL
12aa
12ggJ
8.ff#L
16ggJk
4ee
8.ddL
16ccJk
=
8.bL
16ggJk
8.ff#L
16ggJk
8.eeL
16ccJk
8.aL
16f#Jk
=
4g
4b
4g
8.ggL
16aaJk
=||
8.bbL
16aaJk
8.ggL
16ff#Jk
8.eeL
16ff#Jk
8.ggL
16aaJk
=
8.bbL
16aaJk
8.ggL
16ff#Jk
4ee
8.ff#L
16ggJk
!!linebreak:original
=
8.aaL
16ggJk
8.ff#L
16eeJk
8.ddL
16eeJk
8.ff#L
16ggJk
=
8.aaL
16ggJk
8.ff#L
16eeJk
4dd
8.eeL
16ff#Jk
=
8.ggL
16ff#Jk
8.ggL
16ddJk
12eeL
12ff#
12ggJ
8.ddL
16bJk
=
8.ccL
16bJk
8.aL
16bJk
8.ccL
16ddJk
8.eeL
16ff#Jk
!!linebreak:original
=
8.ggL
16ff#Jk
8.ggL
16ddJk
8.eeL
16ccJk
8.aL
16f#Jk
=
4g
4b
4g
8.ggL
16aaJk
=||
8.bbL
16aaJk
8.ggL
16ff#Jk
8.eeL
16ff#Jk
8.ggL
16aaJk
=
8.bbL
16aaJk
8.ggL
16ff#Jk
4ee
8.ff#L
16ggJk
=
8.aaL
16ggJk
8.ff#L
16eeJk
8.ddL
16eeJk
8.ff#L
16ggJk
!!linebreak:original
=
8.aaL
16ggJk
8.ff#L
16eeJk
4dd
8.eeL
16ff#Jk
=
8.ggL
16ff#Jk
8.ggL
16ddJk
12eeL
12ff#
12ggJ
8.ddL
16bJk
=
8.ccL
16bJk
8.aL
16bJk
8.ccL
16ddJk
8.eeL
16ff#Jk
=
8.ggL
16ff#Jk
8.ggL
16ddJk
8.eeL
16ccJk
8.aL
16f#Jk
=
4g
4b
2g
=||
*-
